public/illustrations/_hospitalbed.svg

<svg width="244" height="217" viewBox="0 0 244 217" fill="none" xmlns="http://www.w3.org/2000/svg">
<path d="M90.9215 10.3075C92.1674 34.4762 93.3001 58.3616 94.5319 82.6719L100.493 82.573C120.06 82.4881 139.528 81.8365 159.067 82.3321C169.389 82.8843 179.809 84.3003 189.905 86.41C201.685 88.7461 211.398 95.5139 219.879 103.768C227.567 111.131 234.788 119.031 241.881 126.932C243.212 128.418 244.458 131.746 243.807 133.275C243.184 134.237 242.292 135.172 241.258 135.837C240.224 136.503 239.064 136.999 237.931 137.069C232.65 137.777 227.241 138.046 221.847 138.188C219.142 138.33 217.826 139.108 218.095 142.095C218.916 153.196 219.298 164.424 220.119 175.524C220.19 176.798 221.677 178.158 222.908 179.078C229.195 183.524 232.126 189.64 231.446 196.974C230.767 204.308 225.57 208.712 218.647 210.751C208.127 213.866 198.867 204.294 201.6 192.953C202.492 189.456 205.352 186.355 207.093 183.042C208.014 181.669 208.523 180.281 208.608 178.582C208.297 168.643 207.688 158.817 207.221 149.019C207.107 145.89 206.98 142.903 206.881 139.646L96.9531 140.382C97.7176 160.417 98.4822 180.451 99.1193 200.188C104.485 200.471 109.299 200.599 114.099 200.995C115.373 201.066 116.634 201.42 117.724 202.043C118.828 202.666 119.763 203.572 120.57 204.606C121.377 205.639 121.872 206.8 122.085 208.089C122.297 209.377 122.226 210.651 121.872 211.912C121.504 213.596 119.522 216.032 117.95 216.244C116.237 216.442 113.774 214.885 112.428 213.398C111.367 212.067 110.998 210.906 108.875 210.935C98.5105 211.232 88.0189 211.091 77.6548 211.374C75.9558 211.289 74.3275 212.605 72.6001 213.087C70.8586 213.696 68.395 214.842 67.0216 214.064C66.2004 213.455 65.3934 212.704 64.8695 211.827C64.3456 210.949 63.9775 209.93 63.8925 208.939C63.397 205.087 65.8182 202.241 69.6835 201.59C73.2514 201.08 76.8194 200.84 80.3591 200.755C82.9218 200.613 85.4704 200.755 88.4437 200.755C88.3163 197.767 88.1747 195.346 88.1605 192.798C87.4809 176.6 86.7871 160.389 86.2349 144.347C86.1217 141.218 85.1731 140.467 82.1856 140.581C69.2587 141.02 56.2044 141.161 43.2917 141.458C42.4422 141.416 41.5785 141.657 40.3043 141.728L40.0777 145.834C40.3892 155.773 40.8564 165.585 40.8847 175.51C40.7714 177.492 41.0971 179.347 41.9891 181.244C42.8811 183.141 43.9289 184.614 45.274 185.959C47.1571 187.757 48.7287 190.263 49.4366 192.854C50.1445 195.445 50.2719 198.291 49.7197 200.811C49.1534 203.473 47.8791 205.965 46.0668 207.99C44.2545 210.014 41.9042 211.6 39.4406 212.45C31.7808 215.154 24.5599 212.209 21.1335 204.804C17.7071 197.385 20.1989 188.026 26.9101 184.557C27.9296 184.189 28.8216 183.382 29.4304 182.419C30.0534 181.457 30.2516 180.338 30.0251 179.191C29.7844 167.978 29.5295 156.905 29.2747 145.692C29.2747 142.86 28.0287 142.506 25.7491 142.803C21.4732 143.285 17.0699 143.469 12.6665 143.37C2.75546 143.115 1.62277 140.368 0.192749 130.075C-0.430232 125.785 0.659968 121.311 0.617492 117.049C0.971458 94.6643 1.32542 72.2798 1.67939 50.0366C1.80682 47.7712 1.92016 45.6473 2.45819 43.5519C2.71304 41.5838 3.6475 39.7855 5.00673 38.4405C6.3518 37.0954 8.10744 36.2037 10.1038 35.878C13.4028 35.1984 16.6876 34.6744 19.9724 34.2779C26.1031 33.754 28.5242 36.1612 28.6234 42.2635C28.8074 57.1584 28.8641 72.053 28.9065 86.9478C29.0198 95.4571 29.1189 103.981 29.2322 112.349C29.3313 113.057 29.5861 113.778 29.6853 114.5C31.356 112.32 32.7294 110.692 34.0886 109.064C44.7784 94.891 59.9848 89.0435 76.4796 85.4048C83.7996 83.819 83.9271 83.9604 83.205 76.4139C83.2474 75.706 82.9926 74.984 82.7802 73.6956C78.9432 73.9079 75.1062 73.9928 71.2551 74.3468C61.0042 75.2105 55.1142 71.3453 54.2363 61.3777C53.5992 52.1321 53.67 42.9148 54.3072 33.7259C54.4346 31.4605 55.2557 29.2374 56.6291 27.4675C58.0025 25.6977 60.183 24.5369 62.3351 24.0838C68.2251 22.6962 74.0868 21.7334 80.2459 20.5158L79.0281 11.6525C76.1964 11.6525 73.6337 11.7941 71.0852 11.6525C68.1118 11.4968 66.2146 9.96757 66.0872 6.99426L66.2004 5.0122C66.3703 4.46001 66.696 3.76601 67.1349 3.35541C67.588 2.81738 68.0411 2.407 68.6216 2.16631C69.2021 1.92561 69.9242 1.67065 70.4905 1.69896C79.3114 1.03351 88.1464 0.382282 96.9531 0L98.9352 0.113379C99.6432 0.155855 100.181 0.60882 100.733 1.06189C101.271 1.51497 101.682 1.96811 101.923 2.54862C102.163 3.12912 102.432 3.70937 102.39 4.4173C102.503 4.98365 102.461 5.69178 102.277 6.39971C102.234 7.10764 101.781 7.6457 101.47 8.19788C101.017 8.73591 100.563 9.14643 99.9829 9.52871C99.4024 9.78356 98.822 10.0383 98.0999 10.1374C95.523 10.5622 92.8187 10.8455 90.256 10.9871L90.8649 10.3075H90.9215ZM224.876 126.564C220.742 121.806 217.302 117.077 213.266 113.17C204.531 104.335 194.223 98.2465 181.565 96.2926C167.364 93.9706 152.965 92.9085 138.622 93.2625C125.412 93.6873 112.23 93.6873 98.8928 93.6732C95.7779 93.6448 94.3195 94.4238 94.6876 98.1191C95.3531 106.798 95.7354 115.478 95.8345 124.27C95.9336 127.682 96.8822 128.574 100.28 128.617C137.744 128.079 175.194 127.838 212.785 127.314C216.764 127.243 220.615 126.748 224.876 126.549V126.564ZM34.1169 130.033L85.4987 129.112C84.989 117.601 84.4368 106.657 83.8987 95.6981C65.2235 94.976 37.0902 114.302 34.1169 130.019V130.033ZM81.6758 31.786C76.4796 30.7949 71.2125 31.3612 66.2712 33.5133C65.8181 33.9097 65.3792 34.3203 65.0677 34.8725C64.7562 35.4246 64.5863 35.9769 64.5439 36.6848C64.4023 44.472 64.5439 52.2876 64.8412 60.1032C64.7846 61.2359 66.6535 63.3173 67.6446 63.3739C72.586 63.6429 77.7256 63.2039 82.9785 62.9207C82.4263 52.1177 81.9732 42.1644 81.5343 31.9277L81.69 31.8002L81.6758 31.786ZM18.1459 131.859C18.1601 102.65 18.1459 74.1486 17.9902 45.3642C13.5585 45.973 13.2753 46.1002 13.0913 49.3567C12.7798 55.006 12.4825 60.6697 12.3126 66.3332C12.0435 87.0189 11.7887 107.705 11.6613 128.263C11.6047 129.396 11.6755 130.528 11.7463 131.958L17.9902 131.873H18.1317L18.1459 131.859ZM214.767 201.024C216.721 198.999 219.071 197.428 219.61 195.474C220.133 193.52 218.562 191.311 217.698 188.847C211.921 193.35 211.397 195.176 214.64 200.882L214.767 201.038V201.024ZM31.6816 198.957C32.078 199.41 33.1116 201.448 34.5133 201.661L36.2124 201.746C36.7787 201.633 37.3593 201.378 37.6708 200.967C38.1238 200.571 38.4353 200.018 38.6052 199.452C38.7751 198.9 38.8034 198.334 38.6901 197.753C38.4778 196.323 37.0477 193.973 35.9292 193.774C33.5364 193.364 31.3418 194.666 31.5259 199.211L31.6816 198.942V198.957Z" fill="#102185"/>
</svg>

<svg xmlns="http://www.w3.org/2000/svg" width="244" height="217" fill="none" viewBox="0 0 244 217"><path fill="#102185" d="M90.922 10.308c1.245 24.168 2.378 48.054 3.61 72.364l5.961-.099c19.567-.085 39.035-.736 58.574-.24 10.322.551 20.742 1.967 30.838 4.077 11.78 2.336 21.493 9.104 29.974 17.358 7.688 7.363 14.909 15.263 22.002 23.164 1.331 1.486 2.577 4.814 1.926 6.343a8.8 8.8 0 0 1-2.549 2.562c-1.034.666-2.194 1.162-3.327 1.232-5.281.708-10.69.977-16.084 1.119-2.705.142-4.021.92-3.752 3.907.821 11.101 1.203 22.329 2.024 33.429.071 1.274 1.558 2.634 2.789 3.554 6.287 4.446 9.218 10.562 8.538 17.896s-5.876 11.738-12.799 13.777c-10.52 3.115-19.78-6.457-17.047-17.798.892-3.497 3.752-6.598 5.493-9.911.921-1.373 1.43-2.761 1.515-4.46-.311-9.939-.92-19.765-1.387-29.563-.114-3.129-.241-6.116-.34-9.373l-109.928.736c.765 20.035 1.53 40.069 2.166 59.806 5.366.283 10.18.411 14.98.807a8.3 8.3 0 0 1 3.625 1.048c1.104.623 2.039 1.529 2.846 2.563a7.56 7.56 0 0 1 1.515 3.483 8.7 8.7 0 0 1-.213 3.823c-.368 1.684-2.35 4.12-3.922 4.332-1.713.198-4.176-1.359-5.522-2.846-1.061-1.331-1.43-2.492-3.553-2.463-10.365.297-20.856.156-31.22.439-1.7-.085-3.328 1.231-5.055 1.713-1.741.609-4.205 1.755-5.578.977-.822-.609-1.629-1.36-2.153-2.237-.523-.878-.892-1.897-.977-2.888-.495-3.852 1.926-6.698 5.791-7.349 3.568-.51 7.136-.75 10.676-.835 2.563-.142 5.111 0 8.085 0-.128-2.988-.27-5.409-.284-7.957-.68-16.198-1.373-32.409-1.925-48.451-.113-3.129-1.062-3.88-4.05-3.766-12.926.439-25.98.58-38.893.877-.85-.042-1.714.199-2.988.27l-.226 4.106c.311 9.939.778 19.751.807 29.676-.114 1.982.212 3.837 1.104 5.734s1.94 3.37 3.285 4.715c1.883 1.798 3.455 4.304 4.163 6.895s.835 5.437.283 7.957a15.7 15.7 0 0 1-3.653 7.179c-1.812 2.024-4.163 3.61-6.626 4.46-7.66 2.704-14.881-.241-18.307-7.646-3.427-7.419-.935-16.778 5.776-20.247 1.02-.368 1.912-1.175 2.52-2.138.623-.962.822-2.081.595-3.228-.24-11.213-.495-22.286-.75-33.499 0-2.832-1.246-3.186-3.526-2.889a98 98 0 0 1-13.082.567c-9.912-.255-11.044-3.002-12.474-13.295-.623-4.29.467-8.764.424-13.026.354-22.385.708-44.77 1.062-67.012.128-2.266.241-4.39.78-6.485a8.82 8.82 0 0 1 2.548-5.111c1.345-1.346 3.1-2.237 5.097-2.563 3.299-.68 6.584-1.204 9.868-1.6 6.131-.524 8.552 1.883 8.651 7.986.184 14.894.241 29.789.284 44.684.113 8.51.212 17.033.325 25.401.1.708.354 1.429.453 2.151 1.671-2.18 3.044-3.808 4.404-5.436 10.69-14.173 25.896-20.02 42.39-23.66 7.32-1.585 7.448-1.444 6.726-8.99.042-.708-.212-1.43-.425-2.718-3.837.212-7.674.297-11.525.65-10.25.864-16.14-3-17.019-12.968-.637-9.246-.566-18.463.071-27.652.128-2.265.949-4.489 2.322-6.258s3.554-2.931 5.706-3.384c5.89-1.388 11.752-2.35 17.91-3.568l-1.217-8.863c-2.832 0-5.394.141-7.943 0-2.973-.156-4.87-1.685-4.998-4.659l.113-1.982c.17-.552.496-1.246.935-1.657.453-.538.906-.948 1.487-1.189.58-.24 1.302-.495 1.868-.467C79.312 1.034 88.147.382 96.953 0l1.982.113c.708.043 1.246.496 1.798.949.538.453.949.906 1.19 1.487.24.58.509 1.16.467 1.868.113.567.071 1.275-.113 1.983-.043.708-.496 1.246-.807 1.798a6.7 6.7 0 0 1-1.487 1.33c-.58.256-1.161.51-1.883.61a74 74 0 0 1-7.844.85l.609-.68zm133.954 116.256c-4.134-4.758-7.574-9.487-11.61-13.394-8.735-8.835-19.043-14.924-31.701-16.877-14.201-2.322-28.6-3.385-42.943-3.03-13.21.424-26.392.424-39.73.41-3.114-.028-4.572.75-4.204 4.446a400 400 0 0 1 1.147 26.151c.099 3.412 1.047 4.304 4.445 4.347 37.464-.538 74.914-.779 112.505-1.303 3.979-.071 7.83-.566 12.091-.765zm-190.76 3.469 51.383-.921c-.51-11.511-1.062-22.455-1.6-33.414-18.675-.722-46.809 18.604-49.782 34.321zm47.56-98.247c-5.196-.991-10.463-.425-15.405 1.727-.453.397-.892.807-1.203 1.36a4 4 0 0 0-.524 1.812c-.142 7.787 0 15.603.297 23.418-.056 1.133 1.813 3.214 2.804 3.27 4.941.27 10.08-.17 15.334-.452a3695 3695 0 0 1-1.445-30.993l.156-.128zm-63.53 100.073c.014-29.209 0-57.71-.156-86.495-4.431.609-4.715.736-4.899 3.993-.311 5.649-.608 11.313-.778 16.976-.27 20.686-.524 41.372-.652 61.93-.056 1.133.014 2.265.085 3.695l6.244-.085h.142zm196.621 69.165c1.954-2.025 4.304-3.596 4.843-5.55.523-1.954-1.048-4.163-1.912-6.627-5.777 4.503-6.301 6.329-3.058 12.035l.127.156zm-183.085-2.067c.396.453 1.43 2.491 2.831 2.704l1.7.085c.566-.113 1.146-.368 1.458-.779.453-.396.764-.949.934-1.515q.255-.828.085-1.699c-.212-1.43-1.642-3.78-2.76-3.979-2.394-.41-4.588.892-4.404 5.437l.156-.269z"/></svg>
